X:63
T:score153
L:1/4
Q:1/4=96
M:4/4
I:linebreak $
K:C
 E | (A e) .e .e | e d/e/ f2 | (A e) .e .e |$ e d/e/ f2 | a/ z/ (g/f/) e d | (c B/A/) B c | %7
 !trill(!TB7/2 !trill)!A/ |$ A3 z |] %9
